X:377
T:Iomramh eadar Il'as Uist
T:Rowing from Islay to Uist
B:Simon Fraser Collection
N:Transposed from Am (to be whistle-friendly)
Z:Nigel Gatherer
L:1/8
M:6/8
K:Bm
F |: B2 B d2 e | c2 B c2 e | B2 B f2 f | gfe f2 c |
     d2 d e2 d | c2 B c2 e | gfe  f2 c | 1 d2 B AGF :| 2 B2 c d2 ||
A |  F2 F F2 E | F2 F d2 e | c2 B A2 F | E2 D E2 G |
     F2 F F2 E | F2 F d2 e | c2 B A2 c | B3-  B2  |]
<end>
<start>
